public/img/casting-icon-7.svg

<svg width="48" height="49" viewBox="0 0 48 49" fill="none" xmlns="http://www.w3.org/2000/svg">
<path d="M47.3588 40.2374L47.3362 40.2144L47.3625 40.18L46.6913 39.6058L42.0263 35.1881C42.0263 35.1881 41.9437 35.2762 41.8088 35.4101L41.685 35.548C40.6237 36.5662 37.2075 39.5024 33.2025 39.556C33.1163 39.556 33.03 39.556 32.9475 39.556C30.8363 39.3225 28.7812 38.1664 26.7 36.0265C23.2387 32.474 19.3912 30.5484 15.2475 30.2843C15.135 30.2843 15.0187 30.2843 14.9025 30.2843C14.2791 30.2277 13.6529 30.2111 13.0275 30.2345C6.7875 30.4948 2.15251 34.767 0.577515 36.4131C0.247515 36.7309 0.0450037 36.9491 0.00375366 36.995L0.0300293 37.018L0 37.0486L0.671265 37.6266L5.34 42.0519C5.34 42.0519 5.42253 41.9639 5.55753 41.8337L5.68121 41.6959C6.74621 40.6815 10.1588 37.7453 14.1638 37.6879C14.25 37.6879 14.3362 37.6879 14.4225 37.6879C16.53 37.9252 18.585 39.0775 20.67 41.2174C24.1313 44.7699 27.975 46.6955 32.1187 46.9596C32.2312 46.9596 32.3513 46.9596 32.4638 46.9596C33.0872 47.016 33.7134 47.0326 34.3388 47.0094C40.575 46.7491 45.2138 42.4807 46.785 40.8346C47.115 40.5169 47.3213 40.2948 47.3588 40.2527" fill="url(#paint0_linear)"/>
<path d="M42.8995 25.8995C40.2552 28.5438 36.7395 30 33 30C29.2604 30 25.7447 28.5437 23.1005 25.8995C20.4563 23.2553 19 19.7395 19 16C19 12.2604 20.4563 8.74472 23.1005 6.10047C25.7447 3.45627 29.2604 2 33 2C36.7395 2 40.2552 3.45627 42.8995 6.10047C45.5437 8.74477 47 12.2605 47 16C47 19.7395 45.5437 23.2552 42.8995 25.8995ZM40.9235 15.3174L30.3797 8.2883C30.2424 8.19675 30.0838 8.15048 29.9246 8.15048C29.7919 8.15048 29.6589 8.18264 29.5376 8.24755C29.2709 8.39023 29.1044 8.66827 29.1044 8.9708V23.0291C29.1044 23.3317 29.2709 23.6097 29.5376 23.7524C29.8043 23.8951 30.128 23.8795 30.3797 23.7116L40.9235 16.6825C41.1517 16.5304 41.2888 16.2742 41.2888 15.9999C41.2888 15.7256 41.1517 15.4696 40.9235 15.3174Z" fill="#5A2E91"/>
<defs>
<linearGradient id="paint0_linear" x1="23.6813" y1="30.2242" x2="23.683" y2="45.3028" gradientUnits="userSpaceOnUse">
<stop stop-color="#2A5BA6"/>
<stop offset="1" stop-color="#E2127E"/>
</linearGradient>
</defs>
</svg>

<svg width="48" height="49" fill="none" xmlns="http://www.w3.org/2000/svg"><path d="M47.359 40.237l-.023-.023.026-.034-.67-.574-4.666-4.418s-.082.088-.217.222l-.124.138c-1.061 1.018-4.477 3.954-8.483 4.008h-.255c-2.11-.233-4.166-1.39-6.247-3.53-3.461-3.552-7.309-5.478-11.452-5.742h-.345a14.67 14.67 0 00-1.876-.05c-6.24.26-10.874 4.533-12.45 6.18-.33.317-.532.535-.573.581l.026.023-.03.03.671.579 4.669 4.425s.083-.088.218-.218l.123-.138c1.065-1.014 4.478-3.95 8.483-4.008h.258c2.108.237 4.163 1.39 6.248 3.53 3.461 3.552 7.305 5.477 11.449 5.742h.345c.623.056 1.25.073 1.875.05 6.236-.26 10.875-4.53 12.446-6.175.33-.318.536-.54.574-.582" fill="url(#paint0_linear)"/><path d="M42.9 25.9A13.908 13.908 0 0133 30a13.91 13.91 0 01-9.9-4.1A13.909 13.909 0 0119 16a13.91 13.91 0 014.1-9.9A13.908 13.908 0 0133 2a13.91 13.91 0 019.9 4.1A13.909 13.909 0 0147 16a13.91 13.91 0 01-4.1 9.9zm-1.977-10.583L30.38 8.288a.82.82 0 00-1.276.683v14.058a.82.82 0 001.276.683l10.543-7.03a.82.82 0 000-1.365z" fill="#5A2E91"/><defs><linearGradient id="paint0_linear" x1="23.681" y1="30.224" x2="23.683" y2="45.303" gradientUnits="userSpaceOnUse"><stop stop-color="#2A5BA6"/><stop offset="1" stop-color="#E2127E"/></linearGradient></defs></svg>
